src/assets/svg-icons/edit.svg

<svg width="29" height="29" viewBox="0 0 29 29" fill="none" xmlns="http://www.w3.org/2000/svg">
<path d="M23.5066 12.5735C23.0374 12.5735 22.657 12.9539 22.657 13.4231V25.8845C22.657 26.6653 22.0217 27.3005 21.2409 27.3005H3.11533C2.33452 27.3005 1.69927 26.6653 1.69927 25.8845V7.75889C1.69927 6.97807 2.33452 6.34283 3.11533 6.34283H15.5767C16.0459 6.34283 16.4263 5.96242 16.4263 5.49319C16.4263 5.02397 16.0459 4.64355 15.5767 4.64355H3.11533C1.39754 4.64355 0 6.04109 0 7.75889V25.8845C0 27.6022 1.39754 28.9998 3.11533 28.9998H21.2409C22.9587 28.9998 24.3562 27.6022 24.3562 25.8845V13.4231C24.3562 12.9539 23.9758 12.5735 23.5066 12.5735Z" fill="black"/>
<path d="M28.4208 2.18184L26.8187 0.579707C26.0458 -0.193236 24.7881 -0.193236 24.0151 0.579707L11.1984 13.3964C11.0798 13.515 10.999 13.6661 10.966 13.8306L10.1649 17.8358C10.1093 18.1144 10.1964 18.4024 10.3973 18.6032C10.5583 18.7641 10.775 18.8521 10.9981 18.8521C11.0535 18.8521 11.1093 18.8467 11.1647 18.8356L15.1699 18.0345C15.3344 18.0016 15.4855 17.9207 15.6041 17.8021L28.4208 4.98547C28.4208 4.98547 28.4209 4.98547 28.4209 4.98541C29.1938 4.21252 29.1938 2.95484 28.4208 2.18184ZM14.5845 16.4187L12.0812 16.9194L12.5819 14.4161L23.0138 3.98414L25.0164 5.98679L14.5845 16.4187ZM27.2193 3.78391L26.218 4.78523L24.2153 2.78259L25.2166 1.78132C25.327 1.67087 25.5067 1.67081 25.6172 1.78126L27.2192 3.38339C27.3297 3.49379 27.3297 3.67351 27.2193 3.78391Z" fill="black"/>
</svg>

<svg xmlns="http://www.w3.org/2000/svg" width="29" height="29" fill="none" viewBox="0 0 29 29"><path fill="#000" d="M23.507 12.573a.85.85 0 0 0-.85.85v12.461c0 .781-.635 1.416-1.416 1.416H3.115c-.78 0-1.416-.635-1.416-1.416V7.76c0-.78.636-1.416 1.416-1.416h12.462a.85.85 0 0 0 0-1.7H3.115A3.119 3.119 0 0 0 0 7.76v18.125A3.119 3.119 0 0 0 3.115 29h18.126a3.119 3.119 0 0 0 3.115-3.116v-12.46a.85.85 0 0 0-.85-.85Z"/><path fill="#000" d="M28.42 2.182 26.82.58a1.985 1.985 0 0 0-2.804 0L11.198 13.396a.85.85 0 0 0-.232.435l-.801 4.005a.85.85 0 0 0 1 1l4.005-.801a.85.85 0 0 0 .434-.233L28.421 4.985a1.985 1.985 0 0 0 0-2.803ZM14.585 16.419l-2.503.5.5-2.503L23.015 3.984l2.002 2.003-10.431 10.432ZM27.22 3.784l-1.001 1.001-2.003-2.002 1.002-1.002c.11-.11.29-.11.4 0l1.602 1.602c.11.11.11.29 0 .4Z"/></svg>
